images/news-2.svg

<svg width="67" height="65" viewBox="0 0 67 65" fill="none" xmlns="http://www.w3.org/2000/svg">
<path d="M33.1447 64.4817C32.8445 64.4817 32.5444 64.2568 32.5444 63.8818V57.5826C32.5444 57.2826 32.7695 56.9826 33.1447 56.9826C33.4448 56.9826 33.7449 57.2076 33.7449 57.5826V63.8818C33.7449 64.1818 33.4448 64.4817 33.1447 64.4817Z" fill="#1771E6"/>
<path d="M33.1447 54.8078C32.8445 54.8078 32.5444 54.5828 32.5444 54.2079V51.4331C32.5444 51.1332 32.7695 50.8332 33.1447 50.8332C33.4448 50.8332 33.7449 51.0582 33.7449 51.4331V54.2079C33.7449 54.5828 33.4448 54.8078 33.1447 54.8078Z" fill="#1771E6"/>
<path d="M33.1447 48.6584C32.8445 48.6584 32.5444 48.4334 32.5444 48.0585V45.2838C32.5444 44.9838 32.7695 44.6838 33.1447 44.6838C33.4448 44.6838 33.7449 44.9088 33.7449 45.2838V48.0585C33.7449 48.3584 33.4448 48.6584 33.1447 48.6584Z" fill="#1771E6"/>
<path d="M33.1447 42.434C32.8445 42.434 32.5444 42.2091 32.5444 41.8341V39.0592C32.5444 38.7592 32.7695 38.4592 33.1447 38.4592C33.4448 38.4592 33.7449 38.6842 33.7449 39.0592V41.8341C33.7449 42.2091 33.4448 42.434 33.1447 42.434Z" fill="#1771E6"/>
<path d="M33.1447 36.2846C32.8445 36.2846 32.5444 36.0597 32.5444 35.6847V29.3853C32.5444 29.0853 32.7695 28.7853 33.1447 28.7853C33.4448 28.7853 33.7449 29.0103 33.7449 29.3853V35.6847C33.7449 36.0597 33.4448 36.2846 33.1447 36.2846Z" fill="#1771E6"/>
<path d="M44.4741 48.2084C42.0732 48.2084 40.0474 46.2585 40.0474 43.7837V39.584C40.0474 39.284 40.2724 38.984 40.6476 38.984H48.3005C48.6007 38.984 48.9008 39.209 48.9008 39.584V43.7837C48.9008 46.2585 46.875 48.2084 44.4741 48.2084ZM41.1728 40.1839V43.7837C41.1728 45.5835 42.6734 47.0834 44.4741 47.0834C46.2748 47.0834 47.7753 45.5835 47.7753 43.7837V40.1839H41.1728Z" fill="#1771E6"/>
<path d="M21.8151 48.2084C19.4142 48.2084 17.3884 46.2585 17.3884 43.7837V39.584C17.3884 39.284 17.6135 38.984 17.9886 38.984H25.6416C25.9417 38.984 26.2418 39.209 26.2418 39.584V43.7837C26.2418 46.2585 24.2911 48.2084 21.8151 48.2084ZM18.5889 40.1839V43.7837C18.5889 45.5835 20.0895 47.0834 21.8902 47.0834C23.6909 47.0834 25.1914 45.5835 25.1914 43.7837V40.1839H18.5889Z" fill="#1771E6"/>
<path d="M33.1444 39.6592C31.8689 39.6592 30.8936 38.6842 30.8936 37.4093C30.8936 36.1343 31.944 35.1594 33.1444 35.1594C34.4199 35.1594 35.3953 36.2093 35.3953 37.4093C35.3953 38.6842 34.4199 39.6592 33.1444 39.6592ZM33.1444 36.2843C32.5442 36.2843 32.019 36.8093 32.019 37.4093C32.019 38.0093 32.5442 38.5342 33.1444 38.5342C33.7446 38.5342 34.2698 38.0093 34.2698 37.4093C34.2698 36.8093 33.7446 36.2843 33.1444 36.2843Z" fill="#1771E6"/>
<path d="M33.1444 45.8083C31.8689 45.8083 30.8936 44.8334 30.8936 43.5585C30.8936 42.2837 31.944 41.3087 33.1444 41.3087C34.4199 41.3087 35.3953 42.3587 35.3953 43.5585C35.3953 44.8334 34.4199 45.8083 33.1444 45.8083ZM33.1444 42.4336C32.5442 42.4336 32.019 42.9586 32.019 43.5585C32.019 44.1585 32.5442 44.6834 33.1444 44.6834C33.7446 44.6834 34.2698 44.1585 34.2698 43.5585C34.2698 42.9586 33.7446 42.4336 33.1444 42.4336Z" fill="#1771E6"/>
<path d="M33.1444 52.033C31.8689 52.033 30.8936 50.9831 30.8936 49.7833C30.8936 48.5085 31.944 47.5336 33.1444 47.5336C34.4199 47.5336 35.3953 48.5085 35.3953 49.7833C35.3953 50.9831 34.4199 52.033 33.1444 52.033ZM33.1444 48.6585C32.5442 48.6585 32.019 49.1834 32.019 49.7833C32.019 50.3832 32.5442 50.9081 33.1444 50.9081C33.7446 50.9081 34.2698 50.3832 34.2698 49.7833C34.2698 49.1084 33.7446 48.6585 33.1444 48.6585Z" fill="#1771E6"/>
<path d="M33.1444 58.1824C31.8689 58.1824 30.8936 57.2075 30.8936 55.9327C30.8936 54.6579 31.944 53.683 33.1444 53.683C34.4199 53.683 35.3953 54.7329 35.3953 55.9327C35.3953 57.1325 34.4199 58.1824 33.1444 58.1824ZM33.1444 54.8079C32.5442 54.8079 32.019 55.3328 32.019 55.9327C32.019 56.5326 32.5442 57.0575 33.1444 57.0575C33.7446 57.0575 34.2698 56.5326 34.2698 55.9327C34.2698 55.3328 33.7446 54.8079 33.1444 54.8079Z" fill="#1771E6"/>
<path d="M30.1433 17.1638C30.0683 17.1638 30.0683 17.1638 29.9933 17.1638C29.8432 17.1638 29.6932 17.0138 29.6181 16.9388L19.7893 1.1901C19.7142 1.04011 19.6392 0.815136 19.7893 0.590155C19.8643 0.440167 20.0894 0.290161 20.3145 0.290161H24.8163C25.0413 0.290161 25.1914 0.365173 25.2664 0.590155L33.6697 14.389C33.8198 14.689 33.7448 14.989 33.5197 15.139L30.5185 17.0138C30.3684 17.0888 30.2934 17.1638 30.1433 17.1638ZM21.2899 1.49007L30.3684 15.8139L32.3942 14.539L24.4411 1.49007H21.2899Z" fill="#1771E6"/>
<path d="M36.1457 17.1622C36.0706 17.1622 35.9206 17.1622 35.8456 17.0873L32.8444 15.2124C32.5443 15.0624 32.4693 14.6874 32.6943 14.4625L41.2476 0.663558C41.3227 0.51357 41.5478 0.363586 41.6978 0.363586H46.0495C46.2746 0.363586 46.4247 0.438576 46.5747 0.663558C46.6497 0.813546 46.6497 1.03854 46.5747 1.26352L36.6709 16.9373C36.5958 17.0872 36.4458 17.1622 36.2957 17.1622C36.2207 17.1622 36.1457 17.1622 36.1457 17.1622ZM33.9699 14.5374L35.9956 15.8123L45.0741 1.4885H42.073L33.9699 14.5374Z" fill="#1771E6"/>
<path d="M50.8516 64.4817H15.4378C14.8375 64.4817 14.3873 64.0317 14.3873 63.4318V21.6609L7.78476 34.0346C7.48464 34.6346 6.88443 35.0096 6.20917 35.0096C5.90905 35.0096 5.6089 34.9346 5.38382 34.7846L0.957117 32.3848C0.0567661 31.9349 -0.243351 30.81 0.206825 29.91C0.581971 29.2351 0.957117 28.4852 1.33226 27.5853C2.08256 25.9355 2.90784 24.0606 3.73316 22.0358C7.63468 12.8117 12.1365 2.31274 17.8387 2.31274C18.0638 2.31274 18.2138 2.38773 18.3639 2.61271L25.3416 14.6115L33.2197 28.2602L41.0978 14.6115L48.0755 2.61271C48.1505 2.46272 48.3756 2.31274 48.6007 2.31274C54.3029 2.31274 58.8047 12.8117 62.7062 22.0358C63.9817 25.0355 65.1821 27.8853 66.3076 29.985C66.7578 30.885 66.4576 31.9349 65.5573 32.4598L61.1305 34.8596C60.9055 35.0096 60.6054 35.0846 60.3052 35.0846C59.63 35.0846 59.0298 34.7096 58.7296 34.1096L52.127 21.7358V63.5068C51.9019 63.9568 51.4518 64.4817 50.8516 64.4817ZM15.5128 63.3568H50.7765V19.4111C50.7765 19.1861 50.9266 18.9611 51.2267 18.8861C51.4518 18.8111 51.7519 18.9611 51.902 19.1861L59.5549 33.5847C59.705 33.8097 59.9301 33.9597 60.1552 33.9597C60.2302 33.9597 60.3803 33.9597 60.4553 33.8847L64.882 31.4849C65.1821 31.3349 65.3322 30.885 65.1821 30.585C64.0567 28.4852 62.8562 25.6355 61.5807 22.5608C58.0544 14.2366 53.7027 3.96259 48.8258 3.58763L42.0731 15.2865L33.6699 29.7601C33.5948 29.9101 33.3697 30.06 33.1446 30.06C32.9196 30.06 32.7695 29.9851 32.6194 29.7601L24.2912 15.2115L17.5386 3.51263C12.7367 3.96259 8.30997 14.2366 4.78359 22.5608C3.95827 24.5856 3.13296 26.4604 2.30763 28.1852C1.85746 29.0851 1.48229 29.9101 1.10714 30.585C0.957081 30.885 1.03213 31.3349 1.40727 31.4849L5.83402 33.8847C5.90905 33.9597 6.05908 33.9597 6.13411 33.9597C6.3592 33.9597 6.58427 33.8097 6.73433 33.5847L14.3873 19.1861C14.5374 18.9611 14.7625 18.8111 15.0626 18.8861C15.2877 18.9611 15.5128 19.1861 15.5128 19.4111V63.3568Z" fill="#1771E6"/>
<path d="M39.522 4.93743L26.7671 4.71245C26.542 4.71245 26.392 4.63743 26.3169 4.41244L24.2911 1.11262C24.2161 0.962625 24.2161 0.737646 24.2911 0.512657C24.3662 0.362665 24.5913 0.212677 24.8163 0.212677H41.7729C41.998 0.212677 42.148 0.287669 42.2981 0.512657C42.3731 0.662649 42.3731 0.887629 42.2981 1.11262L40.1222 4.56245C39.8972 4.86243 39.7471 4.93743 39.522 4.93743ZM27.0672 3.66248L39.2219 3.81248L40.6475 1.4876H25.7167L27.0672 3.66248Z" fill="#1771E6"/>
<path d="M8.53512 32.0097C8.46009 32.0097 8.38504 32.0097 8.23498 31.9347L1.55743 28.3351C1.25732 28.1851 1.1823 27.8101 1.33236 27.5852C1.48241 27.2852 1.85756 27.2102 2.08264 27.3602L8.76019 30.9598C9.06031 31.1098 9.13533 31.4847 8.98527 31.7097C8.91024 31.9347 8.7602 32.0097 8.53512 32.0097Z" fill="#1771E6"/>
<path d="M6.20912 35.0097C5.90901 35.0097 5.60887 34.9347 5.38378 34.7847L0.957111 32.3849C0.0567658 31.9349 -0.243349 30.81 0.206823 29.91C0.581967 29.2351 0.957111 28.4852 1.33225 27.5852C1.40728 27.4353 1.48228 27.3602 1.63234 27.2853C1.7824 27.2103 1.93248 27.2853 2.08254 27.2853L8.76007 30.885C9.06019 31.035 9.13521 31.4099 8.98515 31.6349L7.7097 33.9598C7.48461 34.6347 6.88438 35.0097 6.20912 35.0097ZM2.08254 28.6352C1.78243 29.3101 1.4823 29.9101 1.18219 30.51C1.03213 30.81 1.10713 31.2599 1.48228 31.4099L5.90899 33.8098C5.98402 33.8847 6.13409 33.8848 6.20912 33.8848C6.43421 33.8848 6.65929 33.7348 6.80934 33.5098L7.78471 31.7099L2.08254 28.6352Z" fill="#1771E6"/>
<path d="M60.1551 35.0094C59.4799 35.0094 58.8796 34.6344 58.5795 34.0345L57.304 31.7098C57.229 31.5598 57.229 31.4098 57.229 31.2598C57.304 31.1099 57.379 30.9599 57.5291 30.9599L64.2067 27.3603C64.3568 27.2853 64.5068 27.2853 64.6569 27.3603C64.807 27.4353 64.957 27.5103 64.957 27.6603C65.3322 28.5601 65.7824 29.3101 66.0825 29.985C66.5327 30.8849 66.2325 31.9348 65.3322 32.4597L60.9054 34.8594C60.6803 34.9344 60.3802 35.0094 60.1551 35.0094ZM58.5795 31.7098L59.5549 33.5096C59.705 33.7346 59.93 33.8845 60.1551 33.8845C60.2302 33.8845 60.3802 33.8845 60.4553 33.8095L64.882 31.4098C65.1821 31.2598 65.3322 30.8099 65.1821 30.5099C64.882 29.985 64.5819 29.3101 64.2818 28.6352L58.5795 31.7098Z" fill="#1771E6"/>
</svg>

<svg width="67" height="65" fill="none" xmlns="http://www.w3.org/2000/svg"><path d="M33.145 64.482c-.3 0-.6-.225-.6-.6v-6.3c0-.3.224-.6.6-.6.3 0 .6.226.6.6v6.3c0 .3-.3.6-.6.6zm0-9.674c-.3 0-.6-.225-.6-.6v-2.775c0-.3.224-.6.6-.6.3 0 .6.225.6.6v2.775c0 .375-.3.6-.6.6zm0-6.15c-.3 0-.6-.225-.6-.6v-2.774c0-.3.224-.6.6-.6.3 0 .6.225.6.6v2.775c0 .3-.3.6-.6.6zm0-6.224c-.3 0-.6-.225-.6-.6V39.06c0-.3.224-.6.6-.6.3 0 .6.225.6.6v2.775c0 .375-.3.6-.6.6zm0-6.149c-.3 0-.6-.225-.6-.6v-6.3c0-.3.224-.6.6-.6.3 0 .6.225.6.6v6.3c0 .375-.3.6-.6.6zm11.329 11.923c-2.4 0-4.427-1.95-4.427-4.424v-4.2c0-.3.225-.6.6-.6h7.654c.3 0 .6.225.6.6v4.2c0 2.474-2.026 4.424-4.427 4.424zm-3.301-8.024v3.6c0 1.8 1.5 3.3 3.301 3.3 1.8 0 3.301-1.5 3.301-3.3v-3.6h-6.602zm-19.358 8.024c-2.4 0-4.427-1.95-4.427-4.424v-4.2c0-.3.225-.6.6-.6h7.654c.3 0 .6.225.6.6v4.2a4.386 4.386 0 01-4.427 4.424zm-3.226-8.024v3.6c0 1.8 1.5 3.3 3.301 3.3 1.8 0 3.301-1.5 3.301-3.3v-3.6H18.59z" fill="#1771E6"/><path d="M33.144 39.66c-1.275 0-2.25-.976-2.25-2.25 0-1.276 1.05-2.25 2.25-2.25a2.257 2.257 0 012.251 2.25c0 1.274-.975 2.25-2.25 2.25zm0-3.376c-.6 0-1.125.525-1.125 1.125s.525 1.125 1.125 1.125 1.126-.525 1.126-1.125-.525-1.125-1.126-1.125zm0 9.524c-1.275 0-2.25-.975-2.25-2.25 0-1.274 1.05-2.25 2.25-2.25a2.257 2.257 0 012.251 2.25c0 1.275-.975 2.25-2.25 2.25zm0-3.374c-.6 0-1.125.525-1.125 1.125s.525 1.124 1.125 1.124 1.126-.525 1.126-1.124c0-.6-.525-1.125-1.126-1.125zm0 9.599a2.257 2.257 0 01-2.25-2.25c0-1.275 1.05-2.25 2.25-2.25 1.276 0 2.251.975 2.251 2.25 0 1.2-.975 2.25-2.25 2.25zm0-3.375c-.6 0-1.125.525-1.125 1.125s.525 1.125 1.125 1.125 1.126-.525 1.126-1.125c0-.675-.525-1.125-1.126-1.125zm0 9.524c-1.275 0-2.25-.974-2.25-2.25 0-1.274 1.05-2.249 2.25-2.249 1.276 0 2.251 1.05 2.251 2.25s-.975 2.25-2.25 2.25zm0-3.374c-.6 0-1.125.525-1.125 1.125s.525 1.124 1.125 1.124 1.126-.524 1.126-1.124c0-.6-.525-1.125-1.126-1.125zm-3.001-37.644h-.15c-.15 0-.3-.15-.375-.225L19.79 1.19c-.075-.15-.15-.375 0-.6.075-.15.3-.3.525-.3h4.502c.225 0 .375.075.45.3l8.403 13.8c.15.3.075.6-.15.75l-3.002 1.875c-.15.075-.225.15-.375.15zM21.29 1.49l9.078 14.324 2.026-1.275L24.441 1.49H21.29z" fill="#1771E6"/><path d="M36.146 17.162c-.075 0-.225 0-.3-.075l-3.002-1.875c-.3-.15-.375-.525-.15-.75L41.248.665c.075-.15.3-.3.45-.3h4.352c.225 0 .375.075.525.3.075.15.075.375 0 .6L36.67 16.937a.413.413 0 01-.375.225h-.15zm-2.176-2.625l2.026 1.275L45.074 1.49h-3.001L33.97 14.537z" fill="#1771E6"/><path d="M50.852 64.482H15.438c-.6 0-1.05-.45-1.05-1.05V21.66L7.784 34.035c-.3.6-.9.975-1.576.975-.3 0-.6-.075-.825-.225l-4.427-2.4c-.9-.45-1.2-1.575-.75-2.475a22.62 22.62 0 001.125-2.325c.75-1.65 1.576-3.524 2.401-5.55C7.635 12.813 12.136 2.314 17.84 2.314c.225 0 .375.075.525.3l6.978 11.998 7.878 13.65 7.878-13.65 6.977-11.998c.075-.15.3-.3.526-.3 5.702 0 10.204 10.499 14.105 19.723 1.276 3 2.476 5.85 3.602 7.949.45.9.15 1.95-.75 2.475l-4.428 2.4c-.224.15-.525.225-.825.225a1.75 1.75 0 01-1.575-.975l-6.603-12.374v41.77c-.225.45-.675.976-1.275.976zm-35.34-1.125h35.264V19.41c0-.225.15-.45.45-.525.226-.075.526.075.676.3l7.653 14.399c.15.225.375.375.6.375.075 0 .225 0 .3-.075l4.427-2.4c.3-.15.45-.6.3-.9-1.125-2.1-2.326-4.95-3.601-8.024-3.527-8.324-7.878-18.598-12.755-18.973l-6.753 11.698L33.67 29.76c-.075.15-.3.3-.525.3-.225 0-.376-.075-.526-.3l-8.328-14.549L17.54 3.513c-4.802.45-9.229 10.724-12.755 19.048-.826 2.025-1.651 3.9-2.476 5.624-.45.9-.826 1.725-1.2 2.4-.15.3-.076.75.3.9l4.426 2.4c.075.075.225.075.3.075.225 0 .45-.15.6-.375l7.653-14.399c.15-.225.375-.375.676-.3.225.075.45.3.45.525v43.946z" fill="#1771E6"/><path d="M39.522 4.937l-12.755-.225c-.225 0-.375-.075-.45-.3l-2.026-3.3c-.075-.15-.075-.374 0-.6.075-.15.3-.3.525-.3h16.957c.225 0 .375.076.525.3.075.15.075.376 0 .6l-2.176 3.45c-.225.3-.375.375-.6.375zM27.067 3.662l12.155.15 1.425-2.324h-14.93l1.35 2.174zM8.535 32.01c-.075 0-.15 0-.3-.075l-6.678-3.6c-.3-.15-.375-.525-.225-.75.15-.3.526-.375.75-.225l6.678 3.6c.3.15.375.525.225.75-.075.225-.225.3-.45.3z" fill="#1771E6"/><path d="M6.21 35.01c-.301 0-.601-.075-.826-.225l-4.427-2.4c-.9-.45-1.2-1.575-.75-2.475.375-.675.75-1.425 1.125-2.325a.585.585 0 01.3-.3c.15-.075.3 0 .45 0l6.678 3.6c.3.15.375.525.225.75L7.71 33.96c-.225.675-.826 1.05-1.5 1.05zm-4.127-6.375c-.3.675-.6 1.275-.9 1.875-.15.3-.076.75.3.9l4.426 2.4c.075.075.225.075.3.075.225 0 .45-.15.6-.375l.976-1.8-5.702-3.075zm58.072 6.375a1.75 1.75 0 01-1.575-.975l-1.276-2.325c-.075-.15-.075-.3-.075-.45.075-.15.15-.3.3-.3l6.678-3.6c.15-.075.3-.075.45 0 .15.075.3.15.3.3.375.9.825 1.65 1.126 2.325.45.9.15 1.95-.75 2.475l-4.428 2.4c-.225.074-.525.15-.75.15zm-1.575-3.3l.975 1.8c.15.225.375.375.6.375.075 0 .225 0 .3-.075l4.427-2.4c.3-.15.45-.6.3-.9-.3-.525-.6-1.2-.9-1.875L58.58 31.71z" fill="#1771E6"/></svg>
